img/footer/facebook-icon.svg

<svg width="20" height="20" viewBox="0 0 20 20" fill="none" xmlns="http://www.w3.org/2000/svg">
<path d="M12.5625 10.4667L13 8.13333L10.8125 8.1338V6.26667C10.8125 5.54613 11.1555 5.33333 12.125 5.33333H13V3C13 3 12.1031 3 11.25 3C9.4685 3 8.1875 4.13633 8.1875 6.26667V8.13333H6V10.4667H8.1875V17H10.8125V10.4667H12.5625Z" fill="#75757F"/>
</svg>

<svg xmlns="http://www.w3.org/2000/svg" width="20" height="20" fill="none"><path fill="#75757F" d="M12.563 10.467 13 8.133h-2.188V6.268c0-.72.344-.934 1.313-.934H13V3h-1.75C9.469 3 8.187 4.136 8.187 6.267v1.866H6v2.334h2.188V17h2.624v-6.533h1.75Z"/></svg>
